X:1
T:Little Feet, Be Careful
T:Little Feet, Be Careful
T:James Holmes Rosecrans
T:Lucinda M. Beal Bateman, 1886
T:Public Domain Courtesy of the Cyber Hymnal™
C:James Holmes Rosecrans
Z:Public Domain
Z:Courtesy of the Cyber Hymnal™
%%score 1 ( 2 3 )
L:1/8
Q:1/4=85
M:2/4
K:Ab
V:1 treble 
V:2 bass 
V:3 bass 
V:1
 [CE] | [CE][Ec] [DB][Ec] | [CA]2 [CE][CE] | [DF][FA] [EG][EA] | [GB]3 [DE] | [CE][Ec] [DB][Ec] | %6
w: 1.~I|washed my hands this|morn- ing, O|ve- ry clean and|bright, And|lent them both to|
w: 2.~I|told my ears to|lis- ten Quite|close- ly all day|thro’, For|an- y act of|
w: 3.~My|eyes are set to|watch them A-|bout their work or|play, To|keep them out of|
 [CA]2 [CE][CE] | [DF][FA] [EG][EB] | [EA]4 ||"^Refrain" [Ec]<[Ec] [EA][EB] | [Ec] [EA]3 | %11
w: Je- sus, To|work for Him till|night.|||
w: kind- ness Such|lit- tle hands can|do.|Lit- tle feet, be|care- ful,|
w: mis- chief, For|Je- sus’ sake all|day.|||
 [EB]>[EA] [EG][EA] | [GB]4 | [Ec]<[Ec] [EA][EB] | [Ec] [EA]3 | [FB]>[FB] [EA][EG] | [EA]3 |] %17
w: ||||||
w: Where you take me|to;|An- y- thing for|Je- sus,|On- ly let me|do.|
w: ||||||
V:2
 A, | A,A, [E,G,][E,G,] | [A,,A,]2 [A,,A,][A,,A,] | [D,A,][D,D] [E,B,][E,C] | [E,E]3 [E,B,] | %5
 A,A, [E,G,][E,G,] | [A,,A,]2 [A,,A,][A,,A,] | [D,A,][D,D] [E,B,][E,D] | [A,,C]4 || %9
 A,<A, [A,C][A,D] | [A,E] [A,C]3 | [E,D]>[E,C] [E,B,][E,C] | [E,E]4 | A,<A, [A,D][A,D] | %14
 [A,E] [A,C]3 | [D,D]>[D,D] [E,C][E,B,] | [A,,C]3 |] %17
V:3
 A, | A,A, x2 | x4 | x4 | x4 | A,A, x2 | x4 | x4 | x4 || A,<A, x2 | x4 | x4 | x4 | A,<A, x2 | x4 | %15
 x4 | x3 |] %17

